RestoDelMundo/Varios/Sydneyswans.svg

<svg xmlns="http://www.w3.org/2000/svg" viewBox="0 0 720 720"><path fill="#fff" d="M321.49 327.136h28.552l9.554 18.639 9.398-18.611h28.688l-38.199 79.949Z"/><path d="M367.152 404.016q.526.534.526 1.279-.001.763-.526 1.292c-.35.357-.779.531-1.281.531-.503 0-.928-.174-1.281-.531a1.76 1.76 0 0 1-.524-1.292q.001-.745.526-1.279a1.75 1.75 0 0 1 1.279-.532q.75 0 1.281.532m.21-.205a2.05 2.05 0 0 0-1.491-.613q-.868.002-1.482.613a2.03 2.03 0 0 0-.615 1.483q0 .878.611 1.494c.408.417.903.619 1.486.619.582 0 1.08-.202 1.491-.619q.613-.616.614-1.494a2.03 2.03 0 0 0-.614-1.483m-1.178 1.387a1.1 1.1 0 0 1-.387.055h-.368v-.837h.349q.338 0 .49.087c.104.054.154.17.154.339q0 .263-.238.356m-1.161 1.248h.405v-.908h.321q.325 0 .455.072c.145.088.217.262.217.532v.183l.008.072a.1.1 0 0 0 .007.024q0 .017.005.024h.382l-.015-.029a.4.4 0 0 1-.022-.12q-.004-.087-.005-.17v-.169a.6.6 0 0 0-.126-.356c-.084-.127-.218-.199-.398-.229a.9.9 0 0 0 .336-.111q.226-.146.227-.459-.001-.433-.359-.585-.2-.081-.631-.083h-.807z"/><path fill="#e13338" d="m350.042 327.164 9.554 18.611 9.398-18.611h28.688l-21.933 45.807c-1.578-8.185 2.026-12.597 2.026-12.597s-5.022-.734-9.277 3.282c-.771-1.384-3.807-8.914-15.797-10.248 2.593 3.036 3.116 6.936 2.918 9.638-2.168-1.952-5.349-3.483-8.064-3.56 1.378 1.903 1.419 6.964 1.378 6.926-2.997-2.838-6.966-3.567-6.966-3.567.423 2.592 1.167 5.536.445 8.224-2.354-4.757-20.921-43.932-20.921-43.932z"/><path fill="#e13338" d="M359.606 383.926c-3.969 4.436-5.757 7.651-3.319 8.381 3.931 1.175 4.463-14.53 19.462-19.374l-16.266 34.181-6.495-13.815c.341-3.016 3.193-6.463 6.154-9.682 5.02-5.458 4.384-11.375.747-14.474-3.307-2.813-10.505-1.799-12.01 2.248.335.561.822-.716 1.298-.464.882.464-1.358 1.884 0 2.591.549.266.597.478 1.037.575 1.973.411 1.885-2.045 4.281-2.113 1.288-.039 2.949.745 3.435 3.002.452 2.113-.375 4.539-3.51 7-.814.644-2.854 1.657-4.621 4.771l-.259-.671c1.859-4.061 8.856-5.497 7.792-11.022-.403-2.098-2.366-2.92-3.69-2.368-1.506.619-1.247 2.127-3.428 1.813-1.494 1.397-3.055 3.138-4.773 4.311-.275.033-.065-.881-.053-1.093.512-1.644 1.025-2.997 1.609-4.616.435.571.259 1.503.184 2.494.447-.373 1.201-1.73 1.114-1.978-.882-.777-1.486-.918-1.247-1.71 1.817-6.024 10.581-5.831 13.269-3.144 4.961 4.961 3.265 10.718-.711 15.157"/><path d="M351.799 314.146v1.663h-1.701v1.745h1.438v1.577h-1.479v1.865h1.701v1.619h-3.461v-8.469Z"/><path fill="none" d="M351.799 314.146v1.663h-1.701v1.745h1.438v1.577h-1.479v1.865h1.701v1.619h-3.461v-8.469Z"/><path d="m333.928 314.176-.126-.03-.022 8.47c1.936.019 4.959.571 5.003-4.157.04-4.129-2.598-4.43-4.855-4.283m1.581 6.941V315.8c.868-.024 1.571 1.02 1.571 2.702 0 2.176-1.064 2.682-1.571 2.615"/><path fill="none" d="m333.928 314.176-.126-.03-.022 8.47c1.936.019 4.959.571 5.003-4.157.04-4.129-2.598-4.43-4.855-4.283m1.581 6.941V315.8c.868-.024 1.571 1.02 1.571 2.702 0 2.176-1.064 2.682-1.571 2.615"/><path d="m329.348 316.877 1.003-2.731h1.824l-1.948 4.35-.041 4.119h-1.66v-4.119l-2.006-4.35h1.842Z"/><path fill="none" d="m329.348 316.877 1.003-2.731h1.824l-1.948 4.35-.041 4.119h-1.66v-4.119l-2.006-4.35h1.842Z"/><path d="M344.369 318.729v-4.49h1.76v8.434h-1.595l-1.958-4.683v4.683h-1.694v-8.434h1.628Z"/><path fill="none" d="M344.369 318.729v-4.49h1.76v8.434h-1.595l-1.958-4.683v4.683h-1.694v-8.434h1.628Z"/><path d="M324.835 314.46a2.84 2.84 0 0 0-1.474-.414c-1.428 0-2.243 1.141-2.243 2.47 0 1.227.636 1.861 1.595 2.508.469.334.964.648.964 1.296 0 .556-.435.778-.971.778-.491 0-.839-.11-1.23-.378v1.582c.38.279.96.426 1.428.426 1.562 0 2.422-1.127 2.422-2.621 0-2.276-2.533-2.354-2.533-3.737 0-.517.29-.763.803-.763.456 0 .903.18 1.239.47z"/><path fill="none" d="M324.835 314.46a2.84 2.84 0 0 0-1.474-.414c-1.428 0-2.243 1.141-2.243 2.47 0 1.227.636 1.861 1.595 2.508.469.334.964.648.964 1.296 0 .556-.435.778-.971.778-.491 0-.839-.11-1.23-.378v1.582c.38.279.96.426 1.428.426 1.562 0 2.422-1.127 2.422-2.621 0-2.276-2.533-2.354-2.533-3.737 0-.517.29-.763.803-.763.456 0 .903.18 1.239.47z"/><path d="M397.548 314.46a2.83 2.83 0 0 0-1.472-.414c-1.429 0-2.242 1.141-2.242 2.47 0 1.227.635 1.861 1.595 2.508.468.334.964.648.964 1.296 0 .556-.438.778-.972.778-.491 0-.841-.11-1.23-.378v1.582c.379.279.959.426 1.426.426 1.564 0 2.422-1.127 2.422-2.621 0-2.276-2.533-2.354-2.533-3.737 0-.517.29-.763.803-.763.459 0 .906.18 1.239.47z"/><path fill="none" d="M397.548 314.46a2.83 2.83 0 0 0-1.472-.414c-1.429 0-2.242 1.141-2.242 2.47 0 1.227.635 1.861 1.595 2.508.468.334.964.648.964 1.296 0 .556-.438.778-.972.778-.491 0-.841-.11-1.23-.378v1.582c.379.279.959.426 1.426.426 1.564 0 2.422-1.127 2.422-2.621 0-2.276-2.533-2.354-2.533-3.737 0-.517.29-.763.803-.763.459 0 .906.18 1.239.47z"/><path d="M367.809 314.46a2.83 2.83 0 0 0-1.474-.414c-1.429 0-2.243 1.141-2.243 2.47 0 1.227.639 1.861 1.598 2.508.469.334.962.648.962 1.296 0 .556-.435.778-.972.778-.49 0-.838-.11-1.23-.378v1.582c.381.279.961.426 1.429.426 1.562 0 2.423-1.127 2.423-2.621 0-2.276-2.533-2.354-2.533-3.737 0-.517.289-.763.803-.763.456 0 .902.18 1.238.47z"/><path fill="none" d="M367.809 314.46a2.83 2.83 0 0 0-1.474-.414c-1.429 0-2.243 1.141-2.243 2.47 0 1.227.639 1.861 1.598 2.508.469.334.962.648.962 1.296 0 .556-.435.778-.972.778-.49 0-.838-.11-1.23-.378v1.582c.381.279.961.426 1.429.426 1.562 0 2.423-1.127 2.423-2.621 0-2.276-2.533-2.354-2.533-3.737 0-.517.289-.763.803-.763.456 0 .902.18 1.238.47z"/><path d="M382.928 314.239h-1.825l-1.958 8.434h1.76l.332-1.431h1.527l.361 1.431h1.809zm-1.429 5.608.442-3.091.493 3.091z"/><path fill="none" d="M382.928 314.239h-1.825l-1.958 8.434h1.76l.332-1.431h1.527l.361 1.431h1.809zm-1.429 5.608.442-3.091.493 3.091z"/><path d="M390.145 318.729v-4.49h1.759v8.434h-1.593l-1.958-4.683v4.683h-1.693v-8.434h1.628Z"/><path fill="none" d="M390.145 318.729v-4.49h1.759v8.434h-1.593l-1.958-4.683v4.683h-1.693v-8.434h1.628Z"/><path d="m371.533 314.239.902 5.379.905-5.379h1.48l1.035 5.379.725-5.379h1.84l-1.76 8.434h-1.496l-1.034-5.608-1.167 5.608h-1.528l-1.662-8.434Z"/><path fill="none" d="m371.533 314.239.902 5.379.905-5.379h1.48l1.035 5.379.725-5.379h1.84l-1.76 8.434h-1.496l-1.034-5.608-1.167 5.608h-1.528l-1.662-8.434Z"/><path d="m356.024 316.877 1.003-2.731h1.827l-1.95 4.35-.041 4.119h-1.661v-4.119l-2.006-4.35h1.842Z"/><path fill="none" d="m356.024 316.877 1.003-2.731h1.827l-1.95 4.35-.041 4.119h-1.661v-4.119l-2.006-4.35h1.842Z"/></svg>

<svg enable-background="new 0 0 720 720" viewBox="0 0 720 720" xmlns="http://www.w3.org/2000/svg"><g><path d="M 321.49 327.136 L 350.042 327.136 L 359.596 345.775 L 368.994 327.164 L 397.682 327.164 L 359.483 407.113 Z" fill="#fff"/><path d="M 367.152 404.016 c .35 .357 .526 .782 .526 1.279 c 0 .509 -.177 .939 -.526 1.292 c -.35 .357 -.779 .531 -1.281 .531 c -.503 0 -.928 -.174 -1.281 -.531 c -.35 -.353 -.524 -.783 -.524 -1.292 c 0 -.497 .177 -.923 .526 -1.279 c .353 -.353 .781 -.532 1.279 -.532 C 366.371 403.483 366.799 403.662 367.152 404.016 z M 367.362 403.811 c -.411 -.406 -.909 -.613 -1.491 -.613 c -.578 0 -1.073 .207 -1.482 .613 c -.41 .411 -.615 .909 -.615 1.483 c 0 .586 .203 1.083 .611 1.494 c .408 .417 .903 .619 1.486 .619 c .582 0 1.08 -.202 1.491 -.619 c .408 -.411 .614 -.908 .614 -1.494 C 367.977 404.715 367.77 404.223 367.362 403.811 z M 366.184 405.198 c -.086 .035 -.216 .055 -.387 .055 h -.368 v -.837 h .349 c .225 0 .389 .028 .49 .087 c .104 .054 .154 .17 .154 .339 C 366.422 405.016 366.342 405.137 366.184 405.198 z M 365.023 406.446 h .405 v -.908 h .321 c .218 0 .367 .024 .455 .072 c .145 .088 .217 .262 .217 .532 v .183 l .008 .072 c .002 .011 .004 .019 .007 .024 c 0 .011 .002 .02 .005 .024 h .382 l -.015 -.029 c -.01 -.019 -.017 -.059 -.022 -.12 c -.002 -.058 -.005 -.115 -.005 -.17 v -.169 c 0 -.116 -.041 -.237 -.126 -.356 c -.084 -.127 -.218 -.199 -.398 -.229 c .143 -.023 .256 -.061 .336 -.111 c .15 -.097 .227 -.251 .227 -.459 c 0 -.29 -.121 -.483 -.359 -.585 c -.133 -.053 -.344 -.083 -.631 -.083 h -.807 V 406.446 z"/><path d="M 350.042 327.164 l 9.554 18.611 l 9.398 -18.611 h 28.688 l -21.933 45.807 c -1.578 -8.185 2.026 -12.597 2.026 -12.597 s -5.022 -.734 -9.277 3.282 c -.771 -1.384 -3.807 -8.914 -15.797 -10.248 c 2.593 3.036 3.116 6.936 2.918 9.638 c -2.168 -1.952 -5.349 -3.483 -8.064 -3.56 c 1.378 1.903 1.419 6.964 1.378 6.926 c -2.997 -2.838 -6.966 -3.567 -6.966 -3.567 c .423 2.592 1.167 5.536 .445 8.224 c -2.354 -4.757 -20.921 -43.932 -20.921 -43.932 L 350.042 327.164 z" fill="#e13338"/><path d="M 359.606 383.926 c -3.969 4.436 -5.757 7.651 -3.319 8.381 c 3.931 1.175 4.463 -14.53 19.462 -19.374 l -16.266 34.181 l -6.495 -13.815 c .341 -3.016 3.193 -6.463 6.154 -9.682 c 5.02 -5.458 4.384 -11.375 .747 -14.474 c -3.307 -2.813 -10.505 -1.799 -12.01 2.248 c .335 .561 .822 -.716 1.298 -.464 c .882 .464 -1.358 1.884 0 2.591 c .549 .266 .597 .478 1.037 .575 c 1.973 .411 1.885 -2.045 4.281 -2.113 c 1.288 -.039 2.949 .745 3.435 3.002 c .452 2.113 -.375 4.539 -3.51 7 c -.814 .644 -2.854 1.657 -4.621 4.771 l -.259 -.671 c 1.859 -4.061 8.856 -5.497 7.792 -11.022 c -.403 -2.098 -2.366 -2.92 -3.69 -2.368 c -1.506 .619 -1.247 2.127 -3.428 1.813 c -1.494 1.397 -3.055 3.138 -4.773 4.311 c -.275 .033 -.065 -.881 -.053 -1.093 c .512 -1.644 1.025 -2.997 1.609 -4.616 c .435 .571 .259 1.503 .184 2.494 c .447 -.373 1.201 -1.73 1.114 -1.978 c -.882 -.777 -1.486 -.918 -1.247 -1.71 c 1.817 -6.024 10.581 -5.831 13.269 -3.144 C 365.278 373.73 363.582 379.487 359.606 383.926 z" fill="#e13338"/><path d="M 351.799 314.146 L 351.799 315.809 L 350.098 315.809 L 350.098 317.554 L 351.536 317.554 L 351.536 319.131 L 350.057 319.131 L 350.057 320.996 L 351.758 320.996 L 351.758 322.615 L 348.297 322.615 L 348.297 314.146 Z"/><path d="M 351.799 314.146 L 351.799 315.809 L 350.098 315.809 L 350.098 317.554 L 351.536 317.554 L 351.536 319.131 L 350.057 319.131 L 350.057 320.996 L 351.758 320.996 L 351.758 322.615 L 348.297 322.615 L 348.297 314.146 Z" fill="none"/><path d="M 333.928 314.176 l -.126 -.03 l -.022 8.47 c 1.936 .019 4.959 .571 5.003 -4.157 C 338.823 314.33 336.185 314.029 333.928 314.176 z M 335.509 321.117 V 315.8 c .868 -.024 1.571 1.02 1.571 2.702 C 337.08 320.678 336.016 321.184 335.509 321.117 z"/><path d="M 333.928 314.176 l -.126 -.03 l -.022 8.47 c 1.936 .019 4.959 .571 5.003 -4.157 C 338.823 314.33 336.185 314.029 333.928 314.176 z M 335.509 321.117 V 315.8 c .868 -.024 1.571 1.02 1.571 2.702 C 337.08 320.678 336.016 321.184 335.509 321.117 z" fill="none"/><path d="M 329.348 316.877 L 330.351 314.146 L 332.175 314.146 L 330.227 318.496 L 330.186 322.615 L 328.526 322.615 L 328.526 318.496 L 326.52 314.146 L 328.362 314.146 Z"/><path d="M 329.348 316.877 L 330.351 314.146 L 332.175 314.146 L 330.227 318.496 L 330.186 322.615 L 328.526 322.615 L 328.526 318.496 L 326.52 314.146 L 328.362 314.146 Z" fill="none"/><path d="M 344.369 318.729 L 344.369 314.239 L 346.129 314.239 L 346.129 322.673 L 344.534 322.673 L 342.576 317.99 L 342.576 322.673 L 340.882 322.673 L 340.882 314.239 L 342.51 314.239 Z"/><path d="M 344.369 318.729 L 344.369 314.239 L 346.129 314.239 L 346.129 322.673 L 344.534 322.673 L 342.576 317.99 L 342.576 322.673 L 340.882 322.673 L 340.882 314.239 L 342.51 314.239 Z" fill="none"/><path d="M 324.835 314.46 c -.459 -.27 -.938 -.414 -1.474 -.414 c -1.428 0 -2.243 1.141 -2.243 2.47 c 0 1.227 .636 1.861 1.595 2.508 c .469 .334 .964 .648 .964 1.296 c 0 .556 -.435 .778 -.971 .778 c -.491 0 -.839 -.11 -1.23 -.378 v 1.582 c .38 .279 .96 .426 1.428 .426 c 1.562 0 2.422 -1.127 2.422 -2.621 c 0 -2.276 -2.533 -2.354 -2.533 -3.737 c 0 -.517 .29 -.763 .803 -.763 c .456 0 .903 .18 1.239 .47 V 314.46 z"/><path d="M 324.835 314.46 c -.459 -.27 -.938 -.414 -1.474 -.414 c -1.428 0 -2.243 1.141 -2.243 2.47 c 0 1.227 .636 1.861 1.595 2.508 c .469 .334 .964 .648 .964 1.296 c 0 .556 -.435 .778 -.971 .778 c -.491 0 -.839 -.11 -1.23 -.378 v 1.582 c .38 .279 .96 .426 1.428 .426 c 1.562 0 2.422 -1.127 2.422 -2.621 c 0 -2.276 -2.533 -2.354 -2.533 -3.737 c 0 -.517 .29 -.763 .803 -.763 c .456 0 .903 .18 1.239 .47 V 314.46 z" fill="none"/><path d="M 397.548 314.46 c -.456 -.27 -.938 -.414 -1.472 -.414 c -1.429 0 -2.242 1.141 -2.242 2.47 c 0 1.227 .635 1.861 1.595 2.508 c .468 .334 .964 .648 .964 1.296 c 0 .556 -.438 .778 -.972 .778 c -.491 0 -.841 -.11 -1.23 -.378 v 1.582 c .379 .279 .959 .426 1.426 .426 c 1.564 0 2.422 -1.127 2.422 -2.621 c 0 -2.276 -2.533 -2.354 -2.533 -3.737 c 0 -.517 .29 -.763 .803 -.763 c .459 0 .906 .18 1.239 .47 V 314.46 z"/><path d="M 397.548 314.46 c -.456 -.27 -.938 -.414 -1.472 -.414 c -1.429 0 -2.242 1.141 -2.242 2.47 c 0 1.227 .635 1.861 1.595 2.508 c .468 .334 .964 .648 .964 1.296 c 0 .556 -.438 .778 -.972 .778 c -.491 0 -.841 -.11 -1.23 -.378 v 1.582 c .379 .279 .959 .426 1.426 .426 c 1.564 0 2.422 -1.127 2.422 -2.621 c 0 -2.276 -2.533 -2.354 -2.533 -3.737 c 0 -.517 .29 -.763 .803 -.763 c .459 0 .906 .18 1.239 .47 V 314.46 z" fill="none"/><path d="M 367.809 314.46 c -.456 -.27 -.938 -.414 -1.474 -.414 c -1.429 0 -2.243 1.141 -2.243 2.47 c 0 1.227 .639 1.861 1.598 2.508 c .469 .334 .962 .648 .962 1.296 c 0 .556 -.435 .778 -.972 .778 c -.49 0 -.838 -.11 -1.23 -.378 v 1.582 c .381 .279 .961 .426 1.429 .426 c 1.562 0 2.423 -1.127 2.423 -2.621 c 0 -2.276 -2.533 -2.354 -2.533 -3.737 c 0 -.517 .289 -.763 .803 -.763 c .456 0 .902 .18 1.238 .47 V 314.46 z"/><path d="M 367.809 314.46 c -.456 -.27 -.938 -.414 -1.474 -.414 c -1.429 0 -2.243 1.141 -2.243 2.47 c 0 1.227 .639 1.861 1.598 2.508 c .469 .334 .962 .648 .962 1.296 c 0 .556 -.435 .778 -.972 .778 c -.49 0 -.838 -.11 -1.23 -.378 v 1.582 c .381 .279 .961 .426 1.429 .426 c 1.562 0 2.423 -1.127 2.423 -2.621 c 0 -2.276 -2.533 -2.354 -2.533 -3.737 c 0 -.517 .289 -.763 .803 -.763 c .456 0 .902 .18 1.238 .47 V 314.46 z" fill="none"/><path d="M 382.928 314.239 h -1.825 l -1.958 8.434 h 1.76 l .332 -1.431 h 1.527 l .361 1.431 h 1.809 L 382.928 314.239 z M 381.499 319.847 l .442 -3.091 l .493 3.091 H 381.499 z"/><path d="M 382.928 314.239 h -1.825 l -1.958 8.434 h 1.76 l .332 -1.431 h 1.527 l .361 1.431 h 1.809 L 382.928 314.239 z M 381.499 319.847 l .442 -3.091 l .493 3.091 H 381.499 z" fill="none"/><path d="M 390.145 318.729 L 390.145 314.239 L 391.904 314.239 L 391.904 322.673 L 390.311 322.673 L 388.353 317.99 L 388.353 322.673 L 386.66 322.673 L 386.66 314.239 L 388.288 314.239 Z"/><path d="M 390.145 318.729 L 390.145 314.239 L 391.904 314.239 L 391.904 322.673 L 390.311 322.673 L 388.353 317.99 L 388.353 322.673 L 386.66 322.673 L 386.66 314.239 L 388.288 314.239 Z" fill="none"/><path d="M 371.533 314.239 L 372.435 319.618 L 373.34 314.239 L 374.82 314.239 L 375.855 319.618 L 376.58 314.239 L 378.42 314.239 L 376.66 322.673 L 375.164 322.673 L 374.13 317.065 L 372.963 322.673 L 371.435 322.673 L 369.773 314.239 Z"/><path d="M 371.533 314.239 L 372.435 319.618 L 373.34 314.239 L 374.82 314.239 L 375.855 319.618 L 376.58 314.239 L 378.42 314.239 L 376.66 322.673 L 375.164 322.673 L 374.13 317.065 L 372.963 322.673 L 371.435 322.673 L 369.773 314.239 Z" fill="none"/><path d="M 356.024 316.877 L 357.027 314.146 L 358.854 314.146 L 356.904 318.496 L 356.863 322.615 L 355.202 322.615 L 355.202 318.496 L 353.196 314.146 L 355.038 314.146 Z"/><path d="M 356.024 316.877 L 357.027 314.146 L 358.854 314.146 L 356.904 318.496 L 356.863 322.615 L 355.202 322.615 L 355.202 318.496 L 353.196 314.146 L 355.038 314.146 Z" fill="none"/></g></svg>
